icon/lg/aha.svg

<?xml version="1.0" encoding="UTF-8"?>
<svg viewBox="0 0 512 192" version="1.1" xmlns="http://www.w3.org/2000/svg" preserveAspectRatio="xMidYMid" height="1em" width="1em">
  <g>
    <path d="M56.9555035,146.885246 L47.9625293,187.053864 C47.9625293,188.252927 46.763466,188.852459 45.5644028,188.852459 L2.39812646,188.852459 C1.79859485,188.852459 0.599531616,188.252927 0.599531616,187.653396 C0,187.053864 0,186.454333 0,185.854801 L56.9555035,13.1896956 C56.9555035,13.1896956 58.1545667,10.1920375 61.7517564,8.99297424 C74.3419204,6.59484778 94.1264637,3.5971897 107.915691,1.19906323 C110.913349,0.599531616 112.112412,3.5971897 112.112412,3.5971897 L167.868852,187.053864 C167.868852,187.653396 167.868852,188.252927 167.269321,188.852459 C166.669789,189.451991 166.070258,189.451991 165.470726,189.451991 L140.290398,189.451991 C133.69555,189.451991 120.505855,190.051522 115.709602,190.051522 C114.510539,190.051522 113.311475,189.451991 113.311475,188.252927 L104.318501,147.484778 L56.9555035,146.885246 Z M97.1241218,111.512881 C93.5269321,97.1241218 88.1311475,71.3442623 82.735363,49.1615925 C79.1381733,64.7494145 70.7447307,96.5245902 66.5480094,111.512881 L97.1241218,111.512881 L97.1241218,111.512881 Z M224.824356,68.9461358 C255.400468,47.9625293 281.180328,52.7587822 293.770492,65.3489461 C308.758782,80.9367681 300.36534,101.320843 305.161593,187.053864 C305.161593,187.653396 305.161593,188.252927 304.562061,188.852459 C303.962529,189.451991 303.362998,189.451991 302.763466,189.451991 C297.967213,189.451991 288.974239,188.852459 284.777518,188.852459 C277.583138,188.852459 262.594848,189.451991 256.599532,189.451991 C256,189.451991 255.400468,189.451991 254.800937,188.852459 C254.201405,188.252927 254.201405,187.653396 254.201405,187.053864 C254.800937,103.119438 255.400468,91.7283372 240.412178,91.7283372 C235.016393,91.7283372 230.819672,94.1264637 226.023419,95.9250585 C226.023419,139.091335 226.622951,151.681499 228.421546,186.454333 C228.421546,187.053864 228.421546,187.653396 227.822014,187.653396 C227.222482,188.252927 226.622951,188.252927 226.622951,188.252927 L178.660422,188.852459 C178.06089,188.852459 177.461358,188.852459 177.461358,188.252927 C176.861827,187.653396 176.861827,187.053864 176.861827,187.053864 C178.06089,61.7517564 176.861827,35.971897 173.264637,9.59250585 C171.466042,8.39344262 173.864169,8.39344262 173.864169,8.39344262 C195.447307,5.39578454 197.245902,4.79625293 221.826698,-1.42108547e-14 C221.826698,-1.42108547e-14 224.224824,-1.42108547e-14 224.224824,2.99765808 C224.824356,21.5831382 224.824356,68.9461358 224.824356,68.9461358 Z M389.096019,176.262295 C380.103044,182.857143 362.716628,191.850117 348.327869,191.850117 C326.145199,191.850117 312.355972,175.662763 312.355972,151.681499 C312.355972,114.510539 356.12178,103.71897 387.297424,99.5222482 C387.896956,93.5269321 387.896956,86.9320843 372.309133,86.9320843 C356.721311,86.9320843 343.531616,91.7283372 329.742389,97.1241218 C329.142857,97.7236534 327.943794,97.1241218 327.344262,97.1241218 C326.744731,96.5245902 326.145199,95.9250585 326.145199,94.7259953 L327.344262,65.9484778 C327.344262,64.7494145 327.943794,64.1498829 329.142857,63.5503513 C357.320843,55.1569087 405.283372,48.5620609 425.067916,67.147541 C437.65808,78.5386417 437.058548,92.9274005 436.459016,116.908665 C435.859485,151.681499 436.459016,161.274005 438.257611,187.053864 C438.257611,187.653396 438.257611,188.252927 437.65808,188.852459 C437.058548,189.451991 436.459016,189.451991 435.859485,189.451991 L391.494145,190.051522 C390.894614,190.051522 390.295082,190.051522 389.69555,189.451991 C389.096019,188.852459 389.096019,188.252927 389.096019,187.653396 L389.096019,176.262295 L389.096019,176.262295 Z M387.896956,126.501171 C376.505855,127.700234 359.119438,128.899297 359.119438,143.887588 C359.119438,157.077283 373.508197,161.274005 387.896956,152.28103 L387.896956,126.501171 L387.896956,126.501171 Z M468.234192,127.100703 C467.035129,127.100703 465.836066,125.901639 465.836066,124.702576 C462.838407,59.35363 462.238876,52.1592506 458.641686,11.3911007 C458.641686,10.1920375 459.241218,8.99297424 461.039813,8.39344262 L509.002342,0.599531616 C509.601874,0.599531616 510.800937,0.599531616 511.400468,1.19906323 C512,1.79859485 512,2.39812646 512,3.5971897 C509.002342,32.9742389 506.004684,88.7306792 505.405152,124.103044 C505.405152,125.302108 504.206089,126.501171 503.007026,126.501171 L468.234192,127.100703 L468.234192,127.100703 Z M459.864731,182.761218 C459.840749,182.557377 459.840749,182.359532 459.840749,182.161686 C459.840749,174.026042 460.04459,165.686557 460.098548,158.462201 C460.094066,155.800272 460.008092,153.139104 459.840749,150.482436 C459.840749,150.068759 459.840749,149.655082 460.0326,149.2474 C459.997747,147.871275 459.933783,146.496042 459.840749,145.122623 C459.840749,144.523091 459.840749,143.911569 460.446276,143.306042 C461.057799,142.69452 461.663326,142.69452 462.268852,142.69452 C474.409368,143.911569 495.662763,143.306042 505.375176,142.088993 C505.980703,142.088993 506.58623,142.088993 507.197752,142.69452 C507.803279,143.306042 507.803279,143.911569 507.803279,144.517096 C507.803279,146.123841 507.797283,147.718595 507.779297,149.289368 C507.798017,149.486634 507.806022,149.68477 507.803279,149.882904 L507.803279,187.053864 C507.803279,187.653396 507.803279,188.252927 507.203747,188.852459 C506.604215,189.451991 506.004684,189.451991 505.405152,189.451991 C488.018735,188.852459 477.227166,188.852459 462.238876,190.051522 C461.639344,190.051522 461.039813,190.051522 460.440281,189.451991 C459.840749,188.852459 459.840749,188.252927 459.840749,187.653396 C459.840749,186.03466 459.846745,184.397939 459.864731,182.761218 L459.864731,182.761218 Z" fill="#0073CF"/>
  </g>
</svg>

<svg width="512" height="192" xmlns="http://www.w3.org/2000/svg" preserveAspectRatio="xMidYMid"><path d="m56.956 146.885-8.993 40.169c0 1.199-1.2 1.798-2.399 1.798H2.398c-.6 0-1.798-.6-1.798-1.199-.6-.6-.6-1.199-.6-1.798L56.956 13.19s1.199-2.998 4.796-4.197c12.59-2.398 32.374-5.396 46.164-7.794 2.997-.6 4.196 2.398 4.196 2.398l55.757 183.457c0 .6 0 1.199-.6 1.798-.6.6-1.199.6-1.798.6h-25.18c-6.595 0-19.785.6-24.581.6-1.2 0-2.399-.6-2.399-1.8l-8.992-40.767-47.363-.6Zm40.168-35.372c-3.597-14.389-8.993-40.169-14.389-62.351-3.597 15.587-11.99 47.363-16.187 62.35h30.576Zm127.7-42.567C255.4 47.963 281.18 52.76 293.77 65.35c14.989 15.588 6.595 35.972 11.392 121.705 0 .6 0 1.199-.6 1.798-.6.6-1.199.6-1.799.6-4.796 0-13.789-.6-17.985-.6-7.195 0-22.183.6-28.178.6-.6 0-1.2 0-1.8-.6-.599-.6-.599-1.199-.599-1.798.6-83.935 1.2-95.326-13.789-95.326-5.396 0-9.592 2.398-14.389 4.197 0 43.166.6 55.756 2.399 90.53 0 .599 0 1.198-.6 1.198-.6.6-1.199.6-1.199.6l-47.963.6c-.6 0-1.199 0-1.199-.6-.6-.6-.6-1.2-.6-1.2 1.2-125.301 0-151.081-3.596-177.46-1.799-1.2.6-1.2.6-1.2 21.582-2.997 23.38-3.597 47.962-8.393 0 0 2.398 0 2.398 2.998.6 18.585.6 65.948.6 65.948Zm164.272 107.316c-8.993 6.595-26.38 15.588-40.768 15.588-22.183 0-35.972-16.187-35.972-40.169 0-37.17 43.766-47.962 74.941-52.159.6-5.995.6-12.59-14.988-12.59s-28.777 4.796-42.567 10.192c-.6.6-1.798 0-2.398 0-.6-.6-1.199-1.199-1.199-2.398l1.2-28.778c0-1.199.599-1.798 1.798-2.398 28.178-8.393 76.14-14.988 95.925 3.598 12.59 11.39 11.99 25.78 11.391 49.76-.6 34.773 0 44.366 1.799 70.146 0 .6 0 1.199-.6 1.798-.6.6-1.199.6-1.799.6l-44.365.6c-.6 0-1.199 0-1.798-.6-.6-.6-.6-1.2-.6-1.799v-11.39Zm-1.199-49.76c-11.391 1.198-28.778 2.397-28.778 17.386 0 13.19 14.39 17.386 28.778 8.393v-25.78Zm80.337.599c-1.199 0-2.398-1.2-2.398-2.398-2.998-65.35-3.597-72.544-7.194-113.312 0-1.199.6-2.398 2.398-2.998L509.002.6c.6 0 1.799 0 2.398.6.6.599.6 1.198.6 2.397-2.998 29.377-5.995 85.134-6.595 120.506 0 1.2-1.199 2.398-2.398 2.398l-34.773.6Zm-8.37 55.66c-.023-.204-.023-.401-.023-.6 0-8.135.204-16.474.258-23.699-.005-2.662-.09-5.323-.258-7.98 0-.413 0-.827.192-1.235a97.592 97.592 0 0 0-.192-4.124c0-.6 0-1.211.605-1.817.612-.611 1.217-.611 1.823-.611 12.14 1.217 33.394.611 43.106-.606.606 0 1.211 0 1.823.606.605.611.605 1.217.605 1.822 0 1.607-.006 3.202-.024 4.772.019.198.027.396.024.594v37.17c0 .6 0 1.2-.6 1.8-.599.599-1.198.599-1.798.599-17.386-.6-28.178-.6-43.166.6-.6 0-1.2 0-1.799-.6-.6-.6-.6-1.2-.6-1.799 0-1.618.007-3.255.025-4.892Z" fill="#0073CF"/></svg>
